X: 1
T: Tri Godina Stana
M: 12/8
L: 1/16
Q: 3/16 2/16 2/16 3/16 2/16
K: Cdor
|: (4CDEF GA Bc (4cBAG F2 |1,3 (5GAGGF (3EED EF GGc G2 :|2,4 (5GAGGF (3EED ED C3- C2 :|
[| Bc2 B2 c2 d2c c2 | Bc2 d2 {c}cB B2A A2 | GA2 B2 c2 d2c c2 | Bc2 {A}A2 dc c3-c2 |]
|: GA2 A2 Ac ~B2A GF | GA2 ~GF FG ~E2D C2 | CD2 E2 F2 _G2F F2 \
|1 EF2 ED DC G3- G2 :|2 EF2 ED DC C3- C2 |]
